replication/atom_indices/EAS_69_atomIndicesCap.svg

<?xml version='1.0' encoding='iso-8859-1'?>
<svg version='1.1' baseProfile='full'
              xmlns='http://www.w3.org/2000/svg'
                      xmlns:rdkit='http://www.rdkit.org/xml'
                      xmlns:xlink='http://www.w3.org/1999/xlink'
                  xml:space='preserve'
width='800px' height='200px' viewBox='0 0 800 200'>
<!-- END OF HEADER -->
<rect style='opacity:1.0;fill:#FFFFFF;stroke:none' width='800' height='200' x='0' y='0'> </rect>
<path class='bond-0' d='M 151.846,129.055 L 130.555,135.498' style='fill:none;fill-rule:evenodd;stroke:#000000;stroke-width:2px;stroke-linecap:butt;stroke-linejoin:miter;stroke-opacity:1' />
<path class='bond-0' d='M 146.743,123.711 L 131.839,128.221' style='fill:none;fill-rule:evenodd;stroke:#000000;stroke-width:2px;stroke-linecap:butt;stroke-linejoin:miter;stroke-opacity:1' />
<path class='bond-1' d='M 151.846,129.055 L 158.069,102.449' style='fill:none;fill-rule:evenodd;stroke:#000000;stroke-width:2px;stroke-linecap:butt;stroke-linejoin:miter;stroke-opacity:1' />
<path class='bond-2' d='M 153.496,91.4599 L 141.167,79.8961' style='fill:none;fill-rule:evenodd;stroke:#000000;stroke-width:2px;stroke-linecap:butt;stroke-linejoin:miter;stroke-opacity:1' />
<path class='bond-2' d='M 147.136,94.5345 L 138.506,86.4398' style='fill:none;fill-rule:evenodd;stroke:#000000;stroke-width:2px;stroke-linecap:butt;stroke-linejoin:miter;stroke-opacity:1' />
<path class='bond-3' d='M 169.618,93.8488 L 170.276,93.6496' style='fill:none;fill-rule:evenodd;stroke:#000000;stroke-width:2px;stroke-linecap:butt;stroke-linejoin:miter;stroke-opacity:1' />
<path class='bond-3' d='M 170.276,93.6496 L 170.935,93.4504' style='fill:none;fill-rule:evenodd;stroke:#0000FF;stroke-width:2px;stroke-linecap:butt;stroke-linejoin:miter;stroke-opacity:1' />
<path class='bond-4' d='M 125.045,77.5071 L 114.018,80.8439' style='fill:none;fill-rule:evenodd;stroke:#000000;stroke-width:2px;stroke-linecap:butt;stroke-linejoin:miter;stroke-opacity:1' />
<path class='bond-5' d='M 97.8959,78.455 L 85.5665,66.8912' style='fill:none;fill-rule:evenodd;stroke:#000000;stroke-width:2px;stroke-linecap:butt;stroke-linejoin:miter;stroke-opacity:1' />
<path class='bond-6' d='M 102.469,89.4441 L 97.531,110.556' style='fill:none;fill-rule:evenodd;stroke:#000000;stroke-width:2px;stroke-linecap:butt;stroke-linejoin:miter;stroke-opacity:1' />
<path class='bond-6' d='M 108.149,94.1125 L 104.692,108.891' style='fill:none;fill-rule:evenodd;stroke:#000000;stroke-width:2px;stroke-linecap:butt;stroke-linejoin:miter;stroke-opacity:1' />
<path class='bond-7' d='M 102.104,121.545 L 114.434,133.109' style='fill:none;fill-rule:evenodd;stroke:#000000;stroke-width:2px;stroke-linecap:butt;stroke-linejoin:miter;stroke-opacity:1' />
<path class='bond-8' d='M 85.9823,119.156 L 80.6533,120.769' style='fill:none;fill-rule:evenodd;stroke:#000000;stroke-width:2px;stroke-linecap:butt;stroke-linejoin:miter;stroke-opacity:1' />
<path class='bond-8' d='M 80.6533,120.769 L 75.3243,122.381' style='fill:none;fill-rule:evenodd;stroke:#FF0000;stroke-width:2px;stroke-linecap:butt;stroke-linejoin:miter;stroke-opacity:1' />
<path class='bond-9' d='M 58.8331,120.104 L 52.6684,114.322' style='fill:none;fill-rule:evenodd;stroke:#FF0000;stroke-width:2px;stroke-linecap:butt;stroke-linejoin:miter;stroke-opacity:1' />
<path class='bond-9' d='M 52.6684,114.322 L 46.5037,108.54' style='fill:none;fill-rule:evenodd;stroke:#000000;stroke-width:2px;stroke-linecap:butt;stroke-linejoin:miter;stroke-opacity:1' />
<path class='bond-10' d='M 29.427,102.996 L 24.098,104.608' style='fill:none;fill-rule:evenodd;stroke:#000000;stroke-width:2px;stroke-linecap:butt;stroke-linejoin:miter;stroke-opacity:1' />
<path class='bond-10' d='M 24.098,104.608 L 18.769,106.221' style='fill:none;fill-rule:evenodd;stroke:#FF0000;stroke-width:2px;stroke-linecap:butt;stroke-linejoin:miter;stroke-opacity:1' />
<path class='bond-10' d='M 31.3366,109.307 L 26.0076,110.919' style='fill:none;fill-rule:evenodd;stroke:#000000;stroke-width:2px;stroke-linecap:butt;stroke-linejoin:miter;stroke-opacity:1' />
<path class='bond-10' d='M 26.0076,110.919 L 20.6786,112.532' style='fill:none;fill-rule:evenodd;stroke:#FF0000;stroke-width:2px;stroke-linecap:butt;stroke-linejoin:miter;stroke-opacity:1' />
<path class='bond-11' d='M 41.9305,97.551 L 46.8685,76.4392' style='fill:none;fill-rule:evenodd;stroke:#000000;stroke-width:2px;stroke-linecap:butt;stroke-linejoin:miter;stroke-opacity:1' />
<path class='bond-12' d='M 58.4173,67.839 L 65.7772,65.612' style='fill:none;fill-rule:evenodd;stroke:#000000;stroke-width:2px;stroke-linecap:butt;stroke-linejoin:miter;stroke-opacity:1' />
<path class='bond-12' d='M 61.4309,73.8158 L 66.5828,72.2569' style='fill:none;fill-rule:evenodd;stroke:#000000;stroke-width:2px;stroke-linecap:butt;stroke-linejoin:miter;stroke-opacity:1' />
<text x='149.091' y='102.449' style='font-size:10px;font-style:normal;font-weight:normal;fill-opacity:1;stroke:none;font-family:sans-serif;text-anchor:start;fill:#000000' ><tspan>C:1</tspan></text>
<text x='125.045' y='79.8961' style='font-size:10px;font-style:normal;font-weight:normal;fill-opacity:1;stroke:none;font-family:sans-serif;text-anchor:start;fill:#000000' ><tspan>C:2</tspan></text>
<text x='93.4906' y='89.4441' style='font-size:10px;font-style:normal;font-weight:normal;fill-opacity:1;stroke:none;font-family:sans-serif;text-anchor:start;fill:#000000' ><tspan>C:3</tspan></text>
<text x='85.9823' y='121.545' style='font-size:10px;font-style:normal;font-weight:normal;fill-opacity:1;stroke:none;font-family:sans-serif;text-anchor:start;fill:#000000' ><tspan>C:4</tspan></text>
<text x='110.028' y='144.098' style='font-size:10px;font-style:normal;font-weight:normal;fill-opacity:1;stroke:none;font-family:sans-serif;text-anchor:start;fill:#000000' ><tspan>C:5</tspan></text>
<text x='54.0585' y='131.093' style='font-size:10px;font-style:normal;font-weight:normal;fill-opacity:1;stroke:none;font-family:sans-serif;text-anchor:start;fill:#FF0000' ><tspan>O:6</tspan></text>
<text x='30.3818' y='108.54' style='font-size:10px;font-style:normal;font-weight:normal;fill-opacity:1;stroke:none;font-family:sans-serif;text-anchor:start;fill:#000000' ><tspan>C:7</tspan></text>
<text x='-1.54202' y='118.088' style='font-size:10px;font-style:normal;font-weight:normal;fill-opacity:1;stroke:none;font-family:sans-serif;text-anchor:start;fill:#FF0000' ><tspan>O:8</tspan></text>
<text x='37.8902' y='76.4392' style='font-size:10px;font-style:normal;font-weight:normal;fill-opacity:1;stroke:none;font-family:sans-serif;text-anchor:start;fill:#000000' ><tspan>C:9</tspan></text>
<text x='65.7772' y='66.8912' style='font-size:10px;font-style:normal;font-weight:normal;fill-opacity:1;stroke:none;font-family:sans-serif;text-anchor:start;fill:#000000' ><tspan>C:10</tspan></text>
<text x='170.382' y='93.4504' style='font-size:10px;font-style:normal;font-weight:normal;fill-opacity:1;stroke:none;font-family:sans-serif;text-anchor:start;fill:#0000FF' ><tspan>NH</tspan><tspan style='baseline-shift:sub;font-size:7.5px;'>2</tspan><tspan>:11</tspan></text>
<text x='70.3745' y='194' style='font-size:12px;font-style:normal;font-weight:normal;fill-opacity:1;stroke:none;font-family:sans-serif;text-anchor:start;fill:#000000' ><tspan>comp557</tspan></text>
</svg>

<?xml version="1.0" encoding="UTF-8"?>
<svg baseProfile="full" version="1.1" viewBox="0 0 800 200" xml:space="preserve" xmlns="http://www.w3.org/2000/svg">

 <!-- END OF HEADER -->
<rect width="800" height="200" fill="#fff"> </rect>
<path class="bond-0" d="m151.85 129.06-21.291 6.443" fill="none" stroke="#000" stroke-width="2px"/>
<path class="bond-0" d="m146.74 123.71-14.904 4.51" fill="none" stroke="#000" stroke-width="2px"/>
<path class="bond-1" d="m151.85 129.06 6.223-26.606" fill="none" stroke="#000" stroke-width="2px"/>
<path class="bond-2" d="m153.5 91.46-12.329-11.564" fill="none" stroke="#000" stroke-width="2px"/>
<path class="bond-2" d="m147.14 94.534-8.63-8.0947" fill="none" stroke="#000" stroke-width="2px"/>
<path class="bond-3" d="m169.62 93.849 0.658-0.1992" fill="none" stroke="#000" stroke-width="2px"/>
<path class="bond-3" d="m170.28 93.65 0.659-0.1992" fill="none" stroke="#00f" stroke-width="2px"/>
<path class="bond-4" d="m125.04 77.507-11.027 3.3368" fill="none" stroke="#000" stroke-width="2px"/>
<path class="bond-5" d="m97.896 78.455-12.329-11.564" fill="none" stroke="#000" stroke-width="2px"/>
<path class="bond-6" d="m102.47 89.444-4.938 21.112" fill="none" stroke="#000" stroke-width="2px"/>
<path class="bond-6" d="m108.15 94.112-3.457 14.778" fill="none" stroke="#000" stroke-width="2px"/>
<path class="bond-7" d="m102.1 121.54 12.33 11.564" fill="none" stroke="#000" stroke-width="2px"/>
<path class="bond-8" d="m85.982 119.16-5.329 1.613" fill="none" stroke="#000" stroke-width="2px"/>
<path class="bond-8" d="m80.653 120.77-5.329 1.612" fill="none" stroke="#f00" stroke-width="2px"/>
<path class="bond-9" d="m58.833 120.1-6.1647-5.782" fill="none" stroke="#f00" stroke-width="2px"/>
<path class="bond-9" d="m52.668 114.32-6.1647-5.782" fill="none" stroke="#000" stroke-width="2px"/>
<path class="bond-10" d="m29.427 103-5.329 1.612" fill="none" stroke="#000" stroke-width="2px"/>
<path class="bond-10" d="m24.098 104.61-5.329 1.613" fill="none" stroke="#f00" stroke-width="2px"/>
<path class="bond-10" d="m31.337 109.31-5.329 1.612" fill="none" stroke="#000" stroke-width="2px"/>
<path class="bond-10" d="m26.008 110.92-5.329 1.613" fill="none" stroke="#f00" stroke-width="2px"/>
<path class="bond-11" d="m41.93 97.551 4.938-21.112" fill="none" stroke="#000" stroke-width="2px"/>
<path class="bond-12" d="m58.417 67.839 7.3599-2.227" fill="none" stroke="#000" stroke-width="2px"/>
<path class="bond-12" d="m61.431 73.816 5.1519-1.5589" fill="none" stroke="#000" stroke-width="2px"/>
<text x="149.091" y="102.449" fill="#000000" font-family="sans-serif" font-size="10px"><tspan>C:1</tspan></text>
<text x="125.045" y="79.8961" fill="#000000" font-family="sans-serif" font-size="10px"><tspan>C:2</tspan></text>
<text x="93.4906" y="89.4441" fill="#000000" font-family="sans-serif" font-size="10px"><tspan>C:3</tspan></text>
<text x="85.9823" y="121.545" fill="#000000" font-family="sans-serif" font-size="10px"><tspan>C:4</tspan></text>
<text x="110.028" y="144.098" fill="#000000" font-family="sans-serif" font-size="10px"><tspan>C:5</tspan></text>
<text x="54.0585" y="131.093" fill="#FF0000" font-family="sans-serif" font-size="10px"><tspan>O:6</tspan></text>
<text x="30.3818" y="108.54" fill="#000000" font-family="sans-serif" font-size="10px"><tspan>C:7</tspan></text>
<text x="-1.54202" y="118.088" fill="#FF0000" font-family="sans-serif" font-size="10px"><tspan>O:8</tspan></text>
<text x="37.8902" y="76.4392" fill="#000000" font-family="sans-serif" font-size="10px"><tspan>C:9</tspan></text>
<text x="65.7772" y="66.8912" fill="#000000" font-family="sans-serif" font-size="10px"><tspan>C:10</tspan></text>
<text x="170.382" y="93.4504" fill="#0000FF" font-family="sans-serif" font-size="10px"><tspan>NH</tspan><tspan baseline-shift="sub" font-size="7.5px">2</tspan><tspan>:11</tspan></text>
<text x="70.3745" y="194" fill="#000000" font-family="sans-serif" font-size="12px"><tspan>comp557</tspan></text>
</svg>
